X:207
T: Die verkaufte Muellerin
N: Q1086F
O: Mitteleuropa, Deutschland (BRD) , Rheinland und Elsass
N: Melodievergleich zu Q0086, anderes Lied "Odilienlied" .
R: ???
M: 4/4
L: 1/8
K: G
D2 | G2BBA2dc | B2ABG2z
B | A2AGFGAG | F2EED2z
D | G2GGA2A2 | d4c2B2 | A8 | G2z4

@@@ Tune index: 1262
